X:2281
T:? Carol
C:P Cain (Phil the Desert) West Baldwin
C:Traditional
O:Isle of Man
Z:Clague collection
B:Kiaull Vannin #281 
L:1/4
M:4/4 
Q:60 
K:D 
E|E E/F/ G A|B>c d/c/ B|A A/G/ E E|E3 d/c/| B A B/c/ d|e>c d/c/ B|A G/A/ BB|A3 G/A/| 
B A B/c/ d|e>c d/c/ B|A G/F/ E E/F/| G3 E|E E/F/ G A|B>c d/c/ B|A A/G/ E E|E3|| 

